src/lib/packages/icons/src/assets/line/folder-connection.svg

<svg xmlns="http://www.w3.org/2000/svg" width="24" height="24" fill="none"><path fill="currentColor" d="M17 3.25h-4.689l-1.78-1.78a.749.749 0 0 0-.53-.22h-3c-2.418 0-3.75 1.332-3.75 3.75v7c0 2.418 1.332 3.75 3.75 3.75h4.25v1.617a2.74 2.74 0 0 0-1.883 1.883H5a.75.75 0 0 0 0 1.5h4.367c.329 1.15 1.378 2 2.633 2 1.255 0 2.304-.85 2.633-2H19a.75.75 0 0 0 0-1.5h-4.367a2.74 2.74 0 0 0-1.883-1.883V15.75H17c2.418 0 3.75-1.332 3.75-3.75V7c0-2.418-1.332-3.75-3.75-3.75ZM13.25 20c0 .689-.561 1.25-1.25 1.25s-1.25-.561-1.25-1.25.561-1.25 1.25-1.25 1.25.561 1.25 1.25Zm6-8c0 1.577-.673 2.25-2.25 2.25H7c-1.577 0-2.25-.673-2.25-2.25V5c0-1.577.673-2.25 2.25-2.25h2.689l1.78 1.78c.141.141.331.22.53.22h5c1.577 0 2.25.673 2.25 2.25v5h.001Z"/></svg>

<svg width="24" height="24" viewBox="0 0 24 24" fill="none" xmlns="http://www.w3.org/2000/svg">
<path d="M17 3.25H12.311L10.531 1.47C10.39 1.329 10.2 1.25 10.001 1.25H7.00098C4.58298 1.25 3.25098 2.582 3.25098 5V12C3.25098 14.418 4.58298 15.75 7.00098 15.75H11.251V17.367C10.34 17.627 9.62792 18.339 9.36792 19.25H5C4.586 19.25 4.25 19.586 4.25 20C4.25 20.414 4.586 20.75 5 20.75H9.36694C9.69594 21.9 10.745 22.75 12 22.75C13.255 22.75 14.3041 21.9 14.6331 20.75H19C19.414 20.75 19.75 20.414 19.75 20C19.75 19.586 19.414 19.25 19 19.25H14.6331C14.3731 18.339 13.661 17.627 12.75 17.367V15.75H17C19.418 15.75 20.75 14.418 20.75 12V7C20.75 4.582 19.418 3.25 17 3.25ZM13.25 20C13.25 20.689 12.689 21.25 12 21.25C11.311 21.25 10.75 20.689 10.75 20C10.75 19.311 11.311 18.75 12 18.75C12.689 18.75 13.25 19.311 13.25 20ZM19.25 12C19.25 13.577 18.577 14.25 17 14.25H7C5.423 14.25 4.75 13.577 4.75 12V5C4.75 3.423 5.423 2.75 7 2.75H9.68896L11.469 4.53C11.61 4.671 11.8 4.75 11.999 4.75H16.999C18.576 4.75 19.249 5.423 19.249 7V12H19.25Z" fill="currentColor"/>
</svg>
